X: 9398
T: Dandy Dinny Cronin
R: reel
M: 4/4
K: Amixolydian
|:A2 eA eAAf|gefd BAGB|A2 eA eAAf|fggd BAGB|
A2 eA eAAf|e2 fd Bc d2|(3Bcd ef fgga|gefd BAGB:|
|:aaef fgga|gefd (3Bcd eg|aaef fgga|gedB BAAe|
aaef fgga|gefd Bc d2|(3Bcd ef fgga|gefd BAAe:|

